!!!COM: Robert Franz
!!!CNT: Deutscher
!!!TXO: Deutsche 
!!!OTL: Stille Sicherheit
!!!OPS: Op. 10
!!!ONM: No. 2
!!!ONB: Original key: Db major
!!!LYR: N. Lenau
!!!ENC: Brian Bice
!!!YOR: Vocal Album, G. Schirmer, Inc., 1907
!!!ODT: 1860/
!!NB: Vocal melody and text only encoded.
**kern	**silbe
*clefG2	*
*k[f#c#g#d#a#]	*
*M2/4	*
=1	=1
{4b	{Horch,
8r	.
8d#	wie
=2	=2
4.g#	still
8f#	es
=3	=3
8e	wird
8g#	im
8cc#	dunk-
8b	-len
=4	=4
4a#}	Hain,}
4r	.
=5	=5
{4.dd#	{Ma2d-
8a#	-chen,
=6	=6
8cc#	wir
8b	sind
8a#	si-
8g#	-cher
=7	=7
8.f#	und
16g#	al-
[4a	-lein.
=8	=8
8a]}	|}
8r	.
4r	.
=9	=9
{4.b	{Still
8d#	ver-
=10	=10
4.g#	-sa2u-
8f#	-selt
=11	=11
8e	hier
8g#	am
8cc#	Wie-
8b	-sen-
=12	=12
4a#}	-hang}
8r	.
{16f#	{schon
16f#	der
=13	=13
4.dd#	a-
8cc#	-bend-
=14	=14
(4b	-glo-
8a#)	|
8g#	-cken
=15	=15
8.f#	mu2-
16g#	-der
[4a#	Klang.
=16	=16
8a#]}	|}
8r	.
8r	.
{16g#	{Auf
16f#	den
=17	=17
4e#	Blu-
8d#	-men,
16f#	die
16a#	sich
=18	=18
4.dd#	dir
8a#	ver-
=19	=19
4g#}	-neigt,}
4r	.
=20	=20
8r	.
{4a#	{schlief
8g#	das
=21	=21
8.f##	letz-
16f##	-te
(8b#	Lu2ft-
16a#)	|
16g#	-chen
=22	=22
(8f##	ein
8a#)	|
8r	.
8c##	und
=23	=23
4d#}	schweigt.}
4r	.
=24	=24
8r	.
{16f##	{Sa-
16f##	-gen
8f##	darf
8f##	ich
=25	=25
4a#}	dir}
4r	.
=26	=26
4r	.
{8d#	{wir
16d#	sind
16d#	al-
=27	=27
4f#}	-lein,}
4r	.
=28	=28
8r	.
{16f#	{dass
16b#	mein
8a#	Herz
8b#	ist
=29	=29
(4dd#	e-
8cc#)	|
8b	-wig,
=30	=30
(4a#	e-
8b)	|
8cc#	-wig
=31	=31
4.b}	dein.}
8r	.
*-	*-
